CSETWebApi/CSETWeb_Api/CSETWeb_ApiCore/Diagram/src/main/webapp/img/lib/mscae/ServiceHealth.svg

<svg xmlns="http://www.w3.org/2000/svg" width="24" height="21.012"><path d="M17.625 0c-.648 0-1.227.074-1.734.223s-.98.354-1.412.615-.848.576-1.242.943L12 2.988 10.764 1.78c-.395-.367-.81-.68-1.243-.943S8.617.37 8.11.223 7.023 0 6.375 0c-.883 0-1.71.168-2.484.504s-1.45.79-2.028 1.365A6.33 6.33 0 0 0 .498 3.896C.166 4.674 0 5.5 0 6.375a6.33 6.33 0 0 0 .486 2.449 6.29 6.29 0 0 0 1.377 2.062L12 21.012l10.137-10.125a6.3 6.3 0 0 0 1.377-2.062c.324-.78.486-1.598.486-2.45 0-.875-.166-1.7-.498-2.48a6.33 6.33 0 0 0-1.365-2.027C21.56 1.295 20.883.84 20.1.504A6.17 6.17 0 0 0 17.625 0z" fill="#59b4d9"/><g fill="#fff"><path d="M12 2.988L10.764 1.78c-.395-.367-.81-.68-1.243-.943S8.617.37 8.11.223 7.023 0 6.375 0c-.883 0-1.71.168-2.484.504s-1.45.79-2.028 1.365A6.33 6.33 0 0 0 .498 3.896C.166 4.674 0 5.5 0 6.375a6.33 6.33 0 0 0 .486 2.449 6.29 6.29 0 0 0 1.377 2.062L12 21.012V2.988z" opacity=".2"/><path d="M3 12l-1-1h5.69l2.436-4.874 2.057 7.197L13.732 11H17v1h-2.732l-2.452 3.677-1.943-6.803L8.31 12z"/></g></svg>

<?xml version="1.0" encoding="UTF-8" standalone="no"?>
<svg
   xmlns:dc="http://purl.org/dc/elements/1.1/"
   xmlns:cc="http://creativecommons.org/ns#"
   xmlns:rdf="http://www.w3.org/1999/02/22-rdf-syntax-ns#"
   xmlns:svg="http://www.w3.org/2000/svg"
   xmlns="http://www.w3.org/2000/svg"
   xmlns:sodipodi="http://sodipodi.sourceforge.net/DTD/sodipodi-0.dtd"
   xmlns:inkscape="http://www.inkscape.org/namespaces/inkscape"
   version="1.1"
   id="Layer_1"
   x="0px"
   y="0px"
   width="24"
   height="21.011999"
   viewBox="0 0 24 21.011999"
   enable-background="new 0 0 24 24"
   xml:space="preserve"
   inkscape:version="0.91 r13725"
   sodipodi:docname="ServiceHealth-color.svg"><metadata
     id="metadata13"><rdf:RDF><cc:Work
         rdf:about=""><dc:format>image/svg+xml</dc:format><dc:type
           rdf:resource="http://purl.org/dc/dcmitype/StillImage" /><dc:title></dc:title></cc:Work></rdf:RDF></metadata><defs
     id="defs11" /><sodipodi:namedview
     pagecolor="#ffffff"
     bordercolor="#666666"
     borderopacity="1"
     objecttolerance="10"
     gridtolerance="10"
     guidetolerance="10"
     inkscape:pageopacity="0"
     inkscape:pageshadow="2"
     inkscape:window-width="1920"
     inkscape:window-height="1018"
     id="namedview9"
     showgrid="false"
     fit-margin-top="0"
     fit-margin-left="0"
     fit-margin-right="0"
     fit-margin-bottom="0"
     inkscape:zoom="33.45638"
     inkscape:cx="12"
     inkscape:cy="10.012"
     inkscape:window-x="-8"
     inkscape:window-y="-8"
     inkscape:window-maximized="1"
     inkscape:current-layer="Layer_1" /><path
     d="M 17.625,0 C 16.977,0 16.398,0.074 15.891,0.223 15.383,0.371 14.912,0.577 14.479,0.838 14.045,1.1 13.631,1.414 13.237,1.781 12.842,2.148 12.43,2.551 12,2.988 11.57,2.55 11.158,2.148 10.764,1.781 10.369,1.414 9.955,1.1 9.521,0.838 9.088,0.576 8.617,0.371 8.109,0.223 7.602,0.074 7.023,0 6.375,0 5.492,0 4.664,0.168 3.891,0.504 3.117,0.84 2.441,1.295 1.863,1.869 1.285,2.443 0.83,3.119 0.498,3.896 0.166,4.674 0,5.5 0,6.375 0,7.227 0.162,8.043 0.486,8.824 0.81,9.605 1.269,10.293 1.863,10.886 L 12,21.012 22.137,10.887 C 22.731,10.293 23.19,9.606 23.514,8.825 23.838,8.044 24,7.227 24,6.375 24,5.5 23.834,4.674 23.502,3.896 23.17,3.119 22.715,2.443 22.137,1.869 21.559,1.295 20.883,0.84 20.11,0.504 19.336,0.168 18.508,0 17.625,0 L 17.625,0 Z"
     id="path3"
     inkscape:connector-curvature="0"
     style="fill:#59b4d9" /><path
     d="M 12,2.988 C 11.57,2.55 11.158,2.148 10.764,1.781 10.369,1.414 9.955,1.1 9.521,0.838 9.088,0.576 8.617,0.371 8.109,0.223 7.602,0.074 7.023,0 6.375,0 5.492,0 4.664,0.168 3.891,0.504 3.117,0.84 2.441,1.295 1.863,1.869 1.285,2.443 0.83,3.119 0.498,3.896 0.166,4.674 0,5.5 0,6.375 0,7.227 0.162,8.043 0.486,8.824 0.81,9.605 1.269,10.293 1.863,10.886 L 12,21.012 12,2.988 Z"
     id="path5"
     inkscape:connector-curvature="0"
     style="opacity:0.2;fill:#ffffff" /><polygon
     points="3,13 2,12 7.691,12 10.127,7.126 12.184,14.323 13.732,12 17,12 17,13 14.268,13 11.816,16.677 9.873,9.874 8.309,13 "
     id="polygon7"
     style="fill:#ffffff"
     transform="translate(0,-1)" /></svg>
